packages/tokens/icons/demo/size32Px.svg

<svg viewBox="0 0 32 32" fill="none" xmlns="http://www.w3.org/2000/svg" width="1em" height="1em"><path d="M24.5 14.5L27.5 14.5C28.6046 14.5 29.5 15.3954 29.5 16.5V27.5C29.5 28.6046 28.6046 29.5 27.5 29.5H12.5C11.3954 29.5 10.5 28.6046 10.5 27.5V20.5" stroke="currentColor" stroke-linecap="round"/><path d="M19.5 19.5H26.5M19.5 21.5H23" stroke="currentColor" stroke-linecap="round"/><rect x="13.5" y="19.5" width="4" height="3" rx="0.5" stroke="currentColor"/><path d="M19.5 24.5H26.5M19.5 26.5H23" stroke="currentColor" stroke-linecap="round"/><rect x="13.5" y="24.5" width="4" height="3" rx="0.5" stroke="currentColor"/><path d="M2.5 4C2.5 3.17157 3.17157 2.5 4 2.5L20 2.5C20.8284 2.5 21.5 3.17157 21.5 4V16C21.5 16.8284 20.8284 17.5 20 17.5H4C3.17157 17.5 2.5 16.8284 2.5 16L2.5 4Z" stroke="currentColor"/><path d="M14.67 8.81588C15.0059 9.00783 15.0059 9.49217 14.67 9.68412L10.2481 12.2109C9.91474 12.4014 9.5 12.1607 9.5 11.7768L9.5 6.72318C9.5 6.33927 9.91474 6.09858 10.2481 6.28906L14.67 8.81588Z" stroke="currentColor" stroke-linecap="round" stroke-linejoin="round"/><path d="M5.5 14.5H17.5" stroke="currentColor" stroke-linecap="round"/><path d="M16.25 14.5C16.25 14.9142 15.9142 15.25 15.5 15.25C15.0858 15.25 14.75 14.9142 14.75 14.5C14.75 14.0858 15.0858 13.75 15.5 13.75C15.9142 13.75 16.25 14.0858 16.25 14.5Z" stroke="currentColor" stroke-width="0.5"/></svg>

<svg xmlns="http://www.w3.org/2000/svg" fill="none" viewBox="0 0 32 32" width="1em" height="1em"><path stroke="currentColor" stroke-linecap="round" d="M24.5 14.5h3a2 2 0 0 1 2 2v11a2 2 0 0 1-2 2h-15a2 2 0 0 1-2-2v-7m9-1h7m-7 2H23"/><rect width="4" height="3" x="13.5" y="19.5" stroke="currentColor" rx=".5"/><path stroke="currentColor" stroke-linecap="round" d="M19.5 24.5h7m-7 2H23"/><rect width="4" height="3" x="13.5" y="24.5" stroke="currentColor" rx=".5"/><path stroke="currentColor" d="M2.5 4A1.5 1.5 0 0 1 4 2.5h16A1.5 1.5 0 0 1 21.5 4v12a1.5 1.5 0 0 1-1.5 1.5H4A1.5 1.5 0 0 1 2.5 16V4Z"/><path stroke="currentColor" stroke-linecap="round" stroke-linejoin="round" d="M14.67 8.816a.5.5 0 0 1 0 .868l-4.422 2.527a.5.5 0 0 1-.748-.434V6.723a.5.5 0 0 1 .748-.434l4.422 2.527Z"/><path stroke="currentColor" stroke-linecap="round" d="M5.5 14.5h12"/><path stroke="currentColor" stroke-width=".5" d="M16.25 14.5a.75.75 0 1 1-1.5 0 .75.75 0 0 1 1.5 0Z"/></svg>
